X: 974
T: the Garden of Daisies   #2
O: Ireland
R: reel, hornpipe; long dance, set dance
%S: s:3 b:12(4+4+4)
B: Francis O'Neill: "The Dance Music of Ireland" (1907) #974
Z: Frank Nordberg - http://www.musicaviva.com
F: http://www.musicaviva.com/abc/tunes/ireland/oneill-1001/0974/oneill-1001-0974-1.abc
P: Play (A1B1 A1B2)x2 (CA2 A1B2 CA2 A1B1)x2
M: C
L: 1/8
K: D
"^A"[| fg | a2(af) gbag | fefa gfef | dcde fdec | dedc [1 AG :|[2 A2 |]
"^B"[| FG | ABcA dcAG | FEFG ABcA | dcdf edce | d2dd [1 de :|[2 d2 |]
"^C"|: A2 | dcde fefg | a2(af) defg | a2(af) ggag | f2(fe) de |]

% fg |
% | a2(af) gbag | fefa gfef | dcde fdec | dedc A2 ||
% || (fg) \
% | a2(af) gbag | fefa gfef | dcde fdec | dedc AGFG |
% | ABcA dcAG | FEFG ABcA | dcdf edce | d2dd [1 d2 :|[2 de |]
